X:022
L:1/16
M:2/4
K:F
c2 | f2af efge | f2(c2 c2)=Bc | dcBA BAGF | EFGA Bcde |
f2af efge | f2(c2 c2)=Bc | dcBA BAGF | [1 EFGE F2 :| [2 EFGE F4 ||

